X:1
T:Title
%%score { 1 | 2 }
L:1/8
M:4/4
K:F
V:1 treble nm="Grand Piano"
V:2 bass 
V:1
 z4 z2[Q:1/4=100] C>C | F2 F>G A2 d>d | c4 A2 _A>=A | [Ec]2 [EG]>[FA] [EB]2 [Fc]>[GB] | A6 C>C | %5
 F2 F>G A2 d>d | c4 A2 [Fd]>[Fd] | c2 A>F [FA]2 [EG]2 |[M:3/4] F6 |[M:1/4] (3CDE | %10
[M:4/4] F2 F>G A2 d>d | c4 A2 _A>=A | [Ec]4 [EG]2 [EA]>[EB] | d4 c2 (3CDE | F2 F>G A2 d>d | %15
 c4 A2 f>[Fd] | [Fc]2 [FA]2 [EA] [EG]3 |[M:3/4] F6 |] %18
V:2
 z4 z2 [F,A,]>[F,A,] | [F,A,C]2 [F,A,]>[F,B,F] [F,CF]2 [F,B,F]>[F,B,F] | %2
 [F,A,F]4 [F,CF]2 [F,=B,F]>[F,CF] | [C,C]2 [C,B,]>[C,A,] [C,G,]2 [C,A,]>[C,C] | %4
 [F,CF]6 [F,A,]>[F,A,] | [F,A,C]2 [F,A,]>[F,B,F] [F,CF]2 [F,B,F]>[F,B,F] | %6
 [F,A,F]4 [F,CF]2 [B,,B,]>[D,B,] | [F,A,F]2 [F,CF]>[F,A,] [C,C]2 [C,B,]2 |[M:3/4] [F,A,]6 | %9
[M:1/4] (3C,D,E, |[M:4/4] [F,A,C]2 [F,A,]>[F,B,F] [F,CF]2 [F,B,F]>[F,B,F] | %11
 [F,A,F]4 [F,CF]2 [F,=B,F]>[F,CF] | [C,C]4 [C,B,]2 [C,A,]>[C,G,] | [F,B,F]4 [F,A,F]2 (3C,D,E, | %14
 [F,A,C]2 [F,A,]>[F,B,F] [F,CF]2 [F,B,F]>[F,B,F] | [F,A,F]4 [F,CF]2 [B,,DF]>[B,,B,] | %16
 [C,A,]2 [C,C]2 [C,C] [C,B,]3 |[M:3/4] [F,A,]6 |] %18

